X:58
T:Humoush Milve
Z: id:dc-slide-11
M:6/8
L:1/8
K:D Major
f|g3-g2e|e3d eAce|ad^ce gagec dEE2|F2d3/2/2/B/ cA|FE E/D/|!
F3F ABc|dcA def|dBA f2d|dcd efe|!
(3fge affe|dBGB dedB|GBAF G2E2|!
G2GB A=FBB|AFBB AFDF|AGAB cBAG|FdcA BGFG|AcBG A2df|!
gdBd g2bg|gfge bgg2|egag egge|dBAB G4:|!